img/partners/ros-bank.svg

<svg width="356" height="89" viewBox="0 0 356 89" fill="none" xmlns="http://www.w3.org/2000/svg">
<path d="M193.886 11.4531L161.297 15.6807V25.2572L193.886 22.3692V11.4531Z" fill="#9AACDE"/>
<path fill-rule="evenodd" clip-rule="evenodd" d="M187.724 33.3981L161.304 15.6895V25.2433L169.542 30.7843L171.162 31.7232C168.203 31.7586 166.786 32.3555 165.362 33.2092C161.294 35.6444 159.182 39.9273 159.182 46.2472C159.182 56.8964 165.102 61.9385 176.378 61.9385C187.655 61.9385 193.604 56.8964 193.604 46.2472C193.604 40.0838 191.591 35.8693 187.724 33.3981ZM176.378 54.1517C170.788 54.1517 169.028 52.1308 169.028 46.329C169.028 40.5271 170.775 38.5062 176.378 38.5062C181.982 38.5062 183.699 40.4877 183.699 46.329C183.699 52.1696 182.012 54.1517 176.378 54.1517ZM94.3199 46.329C94.3199 52.1407 96.0661 54.1517 101.67 54.1517C107.273 54.1517 108.99 52.1308 108.99 46.329C108.99 40.5271 107.299 38.5062 101.67 38.5062C96.0393 38.5062 94.3199 40.4877 94.3199 46.329ZM84.4738 46.2443C84.4738 35.5952 90.4329 30.7223 101.67 30.7223C112.906 30.7223 118.892 35.5952 118.892 46.2443C118.892 56.8929 112.972 61.9356 101.67 61.9356C90.367 61.9356 84.4738 56.8929 84.4738 46.2443ZM56.8007 35.2921C57.8729 33.9423 62.1976 30.6829 67.5182 30.6829C76.3739 30.6829 81.2574 35.4225 81.2574 46.1887C81.2574 56.9544 76.3675 61.7397 67.4884 61.7397C62.1377 61.7397 57.8431 58.5389 56.7418 57.1601V71.3909H47.3594V31.3807H56.8007V35.2921ZM56.8074 46.1655C56.8074 51.9709 58.5668 53.9883 64.1571 53.9883V53.9755C69.7868 53.9755 71.474 51.9998 71.474 46.1655C71.474 40.3312 69.7605 38.3428 64.1571 38.3428C58.5537 38.3428 56.8074 40.3602 56.8074 46.1655ZM258.164 31.3934V42.2576H245.707V31.3934H236.266V60.7945H245.707V49.7802H258.164V60.7945H267.609V31.3934H258.164ZM210.622 61.7397C201.736 61.7397 196.853 56.9445 196.853 46.1887C196.853 35.4514 201.733 30.6829 210.589 30.6829C215.906 30.6829 220.231 33.9423 221.31 35.2724V31.361H230.751V60.7974H221.365V57.1601C220.264 58.5389 215.969 61.7397 210.622 61.7397ZM213.953 38.3231C208.32 38.3231 206.633 40.3051 206.633 46.1458C206.629 51.9575 208.353 53.9691 213.953 53.9691C219.554 53.9691 221.299 51.9807 221.299 46.1458C221.299 40.3115 219.587 38.3231 213.953 38.3231ZM146.288 49.9303C145.551 53.0042 143.578 54.1511 139.303 54.1511C133.713 54.1511 131.956 52.1302 131.956 46.3284C131.956 40.5265 133.713 38.5057 139.303 38.5057C143.578 38.5057 145.551 39.6497 146.291 42.7433L156.137 42.0032C154.667 34.3109 148.902 30.7351 139.303 30.7351C128.066 30.7351 122.111 35.6079 122.111 46.2571C122.111 56.9057 128.03 61.9483 139.303 61.9483C148.896 61.9483 154.601 58.2978 156.107 50.6802L146.288 49.9303ZM292.628 45.3542L307.571 60.791H295.433L282.417 47.2545V47.965V50.5104V60.791H273.144V31.3934H282.417V44.1644L295.088 31.3934H306.769L292.628 45.3542Z" fill="#253256"/>
</svg>

<svg width="356" height="89" fill="none" xmlns="http://www.w3.org/2000/svg"><path d="M193.886 11.453l-32.589 4.228v9.576l32.589-2.888V11.453z" fill="#9AACDE"/><path fill-rule="evenodd" clip-rule="evenodd" d="M187.724 33.398l-26.42-17.709v9.554l8.238 5.541 1.62.94c-2.959.035-4.376.631-5.8 1.485-4.068 2.435-6.18 6.718-6.18 13.038 0 10.65 5.92 15.691 17.196 15.691 11.277 0 17.226-5.042 17.226-15.69 0-6.164-2.013-10.379-5.88-12.85zm-11.346 20.754c-5.59 0-7.35-2.021-7.35-7.823 0-5.802 1.747-7.823 7.35-7.823 5.604 0 7.321 1.982 7.321 7.823 0 5.84-1.687 7.823-7.321 7.823zM94.32 46.329c0 5.812 1.746 7.823 7.35 7.823 5.603 0 7.32-2.021 7.32-7.823 0-5.802-1.691-7.823-7.32-7.823-5.63 0-7.35 1.982-7.35 7.823zm-9.846-.085c0-10.649 5.959-15.522 17.196-15.522 11.236 0 17.222 4.873 17.222 15.522 0 10.649-5.92 15.692-17.222 15.692-11.303 0-17.196-5.043-17.196-15.692zM56.8 35.292c1.072-1.35 5.397-4.61 10.717-4.61 8.856 0 13.74 4.74 13.74 15.507 0 10.765-4.89 15.55-13.77 15.55-5.35 0-9.645-3.2-10.746-4.579v14.23h-9.383V31.38H56.8v3.912zm.006 10.873c0 5.806 1.76 7.823 7.35 7.823v-.013c5.63 0 7.317-1.975 7.317-7.81 0-5.834-1.714-7.822-7.317-7.822s-7.35 2.017-7.35 7.822zm201.357-14.772v10.865h-12.457V31.393h-9.441v29.401h9.441V49.78h12.457v11.014h9.445v-29.4h-9.445zM210.622 61.74c-8.886 0-13.769-4.796-13.769-15.551 0-10.738 4.88-15.506 13.736-15.506 5.317 0 9.642 3.26 10.721 4.59V31.36h9.441v29.436h-9.386V57.16c-1.101 1.379-5.396 4.58-10.743 4.58zm3.331-23.417c-5.633 0-7.32 1.982-7.32 7.823-.004 5.812 1.72 7.823 7.32 7.823 5.601 0 7.346-1.988 7.346-7.823 0-5.834-1.712-7.823-7.346-7.823zM146.288 49.93c-.737 3.074-2.71 4.221-6.985 4.221-5.59 0-7.347-2.02-7.347-7.823 0-5.802 1.757-7.822 7.347-7.822 4.275 0 6.248 1.144 6.988 4.237l9.846-.74c-1.47-7.692-7.235-11.268-16.834-11.268-11.237 0-17.192 4.873-17.192 15.522 0 10.649 5.919 15.691 17.192 15.691 9.593 0 15.298-3.65 16.804-11.268l-9.819-.75zm146.34-4.576l14.943 15.437h-12.138l-13.016-13.536V60.79h-9.273V31.393h9.273v12.771l12.671-12.77h11.681l-14.141 13.96z" fill="#253256"/></svg>
